X:636
T:Vals efter Ola Nilsson, Ö. Broby
T:(SvL Skåne nr. 45)
R:Ola Nilsson
B:Svenska Låtar Skåne
Z:2008-10-08
O:Ö. Broby, Skåne
M:3/4
L:1/8
K:D
|: F2 | A2 AA AA | A2 F2 A2 | d2 A2 a2 | f4 d2 | B2 BB BB | g2 e2 c2 | e2 A2 f2 | d4 :|
K:A
|: c2 | e2 c2 e2 | a2 ce A2 | d2 BB AB | c2 A2 E2 | e2 c2 e2 | a2 ce A2 | B2 g2 g2 | a4 :|
(:musicend:)

(:music:)
